assets/images/vk.svg

<svg width="24" height="14" viewBox="0 0 24 14" fill="none" xmlns="http://www.w3.org/2000/svg">
<path d="M11.74 13.6947H13.17C13.17 13.6947 13.625 13.6297 13.82 13.4347C14.015 13.2397 14.015 12.7847 14.015 12.7847C14.015 12.7847 14.015 10.8997 14.86 10.6397C15.705 10.3797 16.875 12.4597 18.045 13.3047C18.955 13.8897 19.605 13.7597 19.605 13.7597L22.79 13.6947C22.79 13.6947 24.415 13.5647 23.635 12.2647C23.57 12.1347 23.18 11.2897 21.295 9.53474C19.345 7.71474 19.605 7.97475 21.945 4.78975C23.375 2.83975 23.96 1.66975 23.765 1.14975C23.57 0.694746 22.53 0.824746 22.53 0.824746H18.955C18.955 0.824746 18.695 0.759746 18.5 0.889746C18.305 1.01975 18.175 1.27975 18.175 1.27975C18.175 1.27975 17.59 2.77475 16.875 4.07475C15.315 6.73975 14.665 6.93475 14.405 6.73975C13.82 6.41475 13.95 5.24475 13.95 4.39975C13.95 1.79975 14.34 0.694746 13.17 0.434746C12.78 0.369746 12.52 0.304746 11.48 0.239746C10.18 0.239746 9.13998 0.239746 8.55498 0.564746C8.16498 0.759746 7.83998 1.21475 8.03498 1.21475C8.29498 1.21475 8.81498 1.34475 9.07498 1.73475C9.46498 2.25475 9.39998 3.35975 9.39998 3.35975C9.39998 3.35975 9.59498 6.41475 8.87998 6.80475C8.42498 7.06475 7.77498 6.54474 6.34498 4.07475C5.62998 2.83975 5.04498 1.47475 5.04498 1.47475C5.04498 1.47475 5.04498 1.21475 4.84998 1.08475C4.58998 0.889746 4.32998 0.889746 4.32998 0.889746H0.949982C0.949982 0.889746 0.429982 0.889746 0.234982 1.14975C0.0399821 1.34475 0.234982 1.73475 0.234982 1.73475C0.234982 1.73475 2.89998 7.90975 5.88998 11.0297C8.61998 13.8897 11.74 13.6947 11.74 13.6947Z" fill="white"/>
</svg>

<svg width="24" height="14" fill="none" xmlns="http://www.w3.org/2000/svg"><path d="M11.74 13.695h1.43s.455-.065.65-.26.195-.65.195-.65 0-1.885.845-2.145 2.015 1.82 3.185 2.665c.91.585 1.56.455 1.56.455l3.185-.065s1.625-.13.845-1.43c-.065-.13-.455-.975-2.34-2.73-1.95-1.82-1.69-1.56.65-4.745 1.43-1.95 2.015-3.12 1.82-3.64C23.57.695 22.53.825 22.53.825h-3.575S18.695.76 18.5.89s-.325.39-.325.39-.585 1.495-1.3 2.795c-1.56 2.665-2.21 2.86-2.47 2.665-.585-.325-.455-1.495-.455-2.34 0-2.6.39-3.705-.78-3.965-.39-.065-.65-.13-1.69-.195-1.3 0-2.34 0-2.925.325-.39.195-.715.65-.52.65.26 0 .78.13 1.04.52.39.52.325 1.625.325 1.625s.195 3.055-.52 3.445c-.455.26-1.105-.26-2.535-2.73-.715-1.235-1.3-2.6-1.3-2.6s0-.26-.195-.39C4.59.89 4.33.89 4.33.89H.95s-.52 0-.715.26c-.195.195 0 .585 0 .585S2.9 7.91 5.89 11.03c2.73 2.86 5.85 2.665 5.85 2.665z" fill="#fff"/></svg>
